svg/starlette.svg

<svg viewBox="0 0 20 20" xmlns="http://www.w3.org/2000/svg">
<rect width="100%" height="100%" fill="#FFC74F"/>
<path d="M0.541334 13.8477C0.417816 13.5294 0.562712 13.1802 1.09004 13.059L4.15661 12.432V12.4391L1.48197 14.0591C1.01165 14.3275 0.667228 14.1707 0.54371 13.8524V13.8477H0.541334Z" fill="white"/>
<path d="M3.88582 2.36523C4.15899 2.16095 4.53429 2.20608 4.79321 2.68115L6.22554 5.46506H6.22317V5.46981L3.93808 3.32725C3.55327 2.94719 3.61266 2.57426 3.88345 2.36761H3.88582V2.36523Z" fill="white"/>
<path d="M19.4586 13.8477C19.5821 13.5294 19.4372 13.1802 18.9099 13.059L15.8433 12.432V12.4391L18.518 14.0591C18.9883 14.3275 19.3327 14.1707 19.4562 13.8524V13.8477H19.4586Z" fill="white"/>
<path d="M16.1141 2.36523C15.8409 2.16095 15.4656 2.20608 15.2067 2.68115L13.7744 5.46506H13.7768V5.46981L16.0619 3.32725C16.4467 2.94719 16.3873 2.57426 16.1165 2.36761H16.1141V2.36523Z" fill="white"/>
<path d="M17.6935 7.80713C17.8028 7.82138 17.8479 7.95678 17.7695 8.03516L14.064 11.7075C14.0331 11.7383 14.0165 11.7835 14.026 11.8262L14.95 16.9617C14.9714 17.071 14.855 17.1565 14.7552 17.1066L10.1185 14.717C10.0989 14.7076 10.0774 14.7028 10.0556 14.7028C10.0338 14.7028 10.0123 14.7076 9.99263 14.717L6.30716 16.6938C6.30688 16.696 6.30661 16.6982 6.30633 16.7005L5.39657 17.1874C5.29918 17.2397 5.18279 17.1565 5.19942 17.0473L6.03792 11.8975C6.04152 11.8759 6.03971 11.8538 6.03266 11.833C6.02562 11.8123 6.01355 11.7937 5.99753 11.7787L2.23023 8.1682C2.14947 8.09219 2.19223 7.95442 2.30387 7.93779L7.45837 7.14443C7.4798 7.14138 7.50013 7.13305 7.51755 7.1202C7.53496 7.10735 7.54891 7.09037 7.55814 7.07079L9.82897 2.37235C9.87648 2.27259 10.019 2.27021 10.0689 2.3676L10.0736 2.36998L12.4202 7.02564C12.4392 7.06602 12.4772 7.09215 12.52 7.09928L17.6911 7.80476L17.6935 7.80713Z" fill="white"/>
</svg>

<svg xmlns="http://www.w3.org/2000/svg" viewBox="0 0 20 20">
  <rect width="100%" height="100%" fill="#FFC74F"/>
  <path fill="#fff" d="M.54 13.85c-.12-.32.02-.67.55-.8l3.07-.62-2.68 1.63c-.47.27-.81.11-.94-.2v-.01ZM3.89 2.37c.27-.2.64-.16.9.31l1.44 2.79-2.3-2.14c-.38-.38-.32-.76-.05-.96ZM19.46 13.85c.12-.32-.02-.67-.55-.8l-3.07-.62 2.68 1.63c.47.27.81.11.94-.2v-.01ZM16.11 2.37c-.27-.2-.64-.16-.9.31l-1.44 2.79 2.3-2.14c.38-.38.32-.76.05-.96Z"/>
  <path fill="#fff" d="M17.7 7.8c.1.02.15.16.07.24l-3.7 3.67a.13.13 0 0 0-.04.12l.92 5.13c.02.11-.1.2-.2.15l-4.63-2.4a.15.15 0 0 0-.13 0L6.31 16.7v.01l-.91.49a.14.14 0 0 1-.2-.14l.84-5.15a.13.13 0 0 0-.04-.12L2.23 8.17a.13.13 0 0 1 .07-.23l5.16-.8a.13.13 0 0 0 .1-.07l2.27-4.7c.05-.1.19-.1.24 0l2.35 4.66c.02.04.06.06.1.07l5.17.7Z"/>
</svg>
